src/assets/icons/fa/expeditedssl.svg

<?xml version="1.0" encoding="utf-8"?>
<svg width="1792" height="1792" viewBox="0 0 1792 1792" xmlns="http://www.w3.org/2000/svg"><path d="M896 64q-169 0-323 66t-265.5 177.5-177.5 265.5-66 323 66 323 177.5 265.5 265.5 177.5 323 66 323-66 265.5-177.5 177.5-265.5 66-323-66-323-177.5-265.5-265.5-177.5-323-66zm0-64q182 0 348 71t286 191 191 286 71 348-71 348-191 286-286 191-348 71-348-71-286-191-191-286-71-348 71-348 191-286 286-191 348-71zm-400 832q16 0 16 16v480q0 16-16 16h-32q-16 0-16-16v-480q0-16 16-16h32zm400 64q53 0 90.5 37.5t37.5 90.5q0 35-17.5 64t-46.5 46v114q0 14-9 23t-23 9h-64q-14 0-23-9t-9-23v-114q-29-17-46.5-46t-17.5-64q0-53 37.5-90.5t90.5-37.5zm0-768q209 0 385.5 103t279.5 279.5 103 385.5-103 385.5-279.5 279.5-385.5 103-385.5-103-279.5-279.5-103-385.5 103-385.5 279.5-279.5 385.5-103zm-352 480v96q0 14 9 23t23 9h64q14 0 23-9t9-23v-96q0-93 65.5-158.5t158.5-65.5 158.5 65.5 65.5 158.5v96q0 14 9 23t23 9h64q14 0 23-9t9-23v-96q0-146-103-249t-249-103-249 103-103 249zm864 736v-512q0-26-19-45t-45-19h-896q-26 0-45 19t-19 45v512q0 26 19 45t45 19h896q26 0 45-19t19-45z"/></svg>

<svg width="1792" height="1792" xmlns="http://www.w3.org/2000/svg"><path d="M896 64q-169 0-323 66T307.5 307.5 130 573 64 896t66 323 177.5 265.5T573 1662t323 66 323-66 265.5-177.5T1662 1219t66-323-66-323-177.5-265.5T1219 130 896 64zm0-64q182 0 348 71t286 191 191 286 71 348-71 348-191 286-286 191-348 71-348-71-286-191-191-286T0 896t71-348 191-286T548 71 896 0zM496 832q16 0 16 16v480q0 16-16 16h-32q-16 0-16-16V848q0-16 16-16h32zm400 64q53 0 90.5 37.5t37.5 90.5q0 35-17.5 64t-46.5 46v114q0 14-9 23t-23 9h-64q-14 0-23-9t-9-23v-114q-29-17-46.5-46t-17.5-64q0-53 37.5-90.5T896 896zm0-768q209 0 385.5 103T1561 510.5 1664 896t-103 385.5-279.5 279.5T896 1664t-385.5-103T231 1281.5 128 896t103-385.5T510.5 231 896 128zM544 608v96q0 14 9 23t23 9h64q14 0 23-9t9-23v-96q0-93 65.5-158.5T896 384t158.5 65.5T1120 608v96q0 14 9 23t23 9h64q14 0 23-9t9-23v-96q0-146-103-249T896 256 647 359 544 608zm864 736V832q0-26-19-45t-45-19H448q-26 0-45 19t-19 45v512q0 26 19 45t45 19h896q26 0 45-19t19-45z"/></svg>
